X:6
T: SCHLAF MEIN KINDCHEN SIEBEN STUND
N: K0025
O: Europa, Mitteleuropa, Deutschland, Thueringen
R: Kinder -, Wiegen - Lied
M: 6/8
L: 1/16
K: G
 | B4B2d4B2 | A2B2A2G4z2 |
e4e2d3cB2 | A2c2B2A4z2 |
A4c2B2A2G2 | e4e2d3cB2 |
A4e2d3cB2 | c3BA2A4G2

@@@ Tune index: 7343
